assets/icons/Arrow Right.svg

<svg width="24" height="24" viewBox="0 0 24 24" fill="none" xmlns="http://www.w3.org/2000/svg">
<g style="mix-blend-mode:overlay">
<path fill-rule="evenodd" clip-rule="evenodd" d="M15.4243 5.57573C15.1899 5.34142 14.81 5.34142 14.5757 5.57573C14.3414 5.81004 14.3414 6.18994 14.5757 6.42426L19.5515 11.4H2.99999C2.66862 11.4 2.39999 11.6686 2.39999 12C2.39999 12.3314 2.66862 12.6 2.99999 12.6H19.5515L14.5757 17.5757C14.3414 17.81 14.3414 18.1899 14.5757 18.4243C14.81 18.6586 15.1899 18.6586 15.4243 18.4243L21.4243 12.4243C21.4818 12.3667 21.5252 12.3004 21.5545 12.2297C21.5838 12.1589 21.6 12.0813 21.6 12C21.6 11.9186 21.5838 11.8411 21.5545 11.7703C21.5252 11.6996 21.4818 11.6333 21.4243 11.5757L15.4243 5.57573Z" fill="black"/>
</g>
</svg>

<?xml version="1.0" encoding="utf-8"?>
<!-- Generator: Adobe Illustrator 26.3.1, SVG Export Plug-In . SVG Version: 6.00 Build 0)  -->
<svg version="1.1" id="Layer_1" xmlns="http://www.w3.org/2000/svg" xmlns:xlink="http://www.w3.org/1999/xlink" x="0px" y="0px"
	 viewBox="0 0 24 24" style="enable-background:new 0 0 24 24;" xml:space="preserve">
<style type="text/css">
	.st0{fill-rule:evenodd;clip-rule:evenodd;fill:#F49AC9;}
</style>
<g>
	<path class="st0" d="M15.4,5.6c-0.2-0.2-0.6-0.2-0.8,0c-0.2,0.2-0.2,0.6,0,0.8l5,5H3c-0.3,0-0.6,0.3-0.6,0.6s0.3,0.6,0.6,0.6h16.6
		l-5,5c-0.2,0.2-0.2,0.6,0,0.8c0.2,0.2,0.6,0.2,0.8,0l6-6c0.1-0.1,0.1-0.1,0.1-0.2c0-0.1,0-0.1,0-0.2c0-0.1,0-0.2,0-0.2
		c0-0.1-0.1-0.1-0.1-0.2L15.4,5.6z"/>
</g>
</svg>
